static/images/mobile/copyright/wikipedia-wordmark-fa.svg

<?xml version="1.0" encoding="UTF-8"?>
<svg width="96px" height="32px" viewBox="0 0 96 32" version="1.1" xmlns="http://www.w3.org/2000/svg" xmlns:xlink="http://www.w3.org/1999/xlink">
    <title>wikipedia-wordmark-fa</title>
    <g id="Page-1" stroke="none" stroke-width="1" fill="none" fill-rule="evenodd">
        <path d="M77.4030439,0.235161173 C77.4030253,0.572848208 77.2040492,1.42907345 76.806097,2.80377208 C73.8756448,3.76855249 70.1010815,5.12519101 65.4819534,6.87378024 C67.6285134,8.76712822 70.2574173,11.7337099 73.3687577,15.7736179 C74.4661641,17.196662 75.3585189,18.1130969 76.0459145,18.5232004 C76.5765205,18.8367517 77.34226,18.9935227 78.3432533,18.9935227 L78.8135663,18.9935227 L78.8133996,18.9936801 L79.9143811,18.9943377 C82.2177399,18.9943377 83.3694193,18.5782883 83.3694193,17.7461525 C83.36941,17.1673028 82.8448332,16.2085424 81.795689,14.869964 L82.7362966,12.5907779 C82.8327654,12.3616646 82.9111463,12.2470894 82.9714485,12.2470894 C83.0317415,12.2470894 83.158366,12.3857818 83.3513221,12.6631388 C84.3281426,14.098223 84.8165065,15.5694275 84.8165065,17.0768448 C84.8165065,20.1399971 83.2909736,21.6714945 80.2399261,21.6714945 L77.5447092,21.6714945 L77.544561,21.6684289 L77.4090958,21.6639011 C76.2820807,21.5917956 75.1284026,20.9428455 73.9480612,19.71702 C73.3330172,19.0778681 72.4346239,17.8960051 71.2527517,16.1715886 C71.3733376,19.837606 69.3051307,21.670661 65.0482236,21.670661 L56.2677679,21.670661 C55.6406653,21.670661 55.0135627,21.7731683 54.3865526,21.9781737 C53.5544446,22.2675986 53.1383674,22.6595308 53.1383674,23.1539333 C53.1383517,23.3348215 54.2508703,23.6453536 56.4757834,24.0855572 C58.7006965,24.5257238 59.8131993,25.0111147 59.8131993,25.5417579 C59.8131771,27.3626802 59.2885948,28.7194113 58.239469,29.611766 C56.466707,31.1312234 53.3433265,31.8909521 48.8695128,31.8909521 C43.4669463,31.8909521 40.7656167,29.8950782 40.7656167,25.9035158 C40.7656167,25.011124 40.9585635,24.0101678 41.3444664,22.9007213 C41.73036,21.7912747 42.2006731,20.8747473 42.7553779,20.1511388 C42.9724419,19.8737725 43.171418,19.7230308 43.3523155,19.6989043 C43.5332037,19.6868643 43.6236432,19.7833701 43.6236525,19.9883292 C43.6236469,20.1692267 43.5512916,20.3983493 43.4065792,20.6757156 C42.7071342,22.0022539 42.3574256,23.3770451 42.3574256,24.7999967 C42.357421,25.9697362 42.7975922,26.9345166 43.6779439,27.6942453 C44.8115632,28.6831058 46.5721925,29.1775824 48.9599245,29.1775824 C50.8050195,29.1775732 52.5173959,29.0810951 54.0972389,28.8881576 C56.8949817,28.5384305 58.2938531,27.9415299 58.2938531,27.0973355 C58.2938327,26.7476083 57.6848384,26.4702421 56.4668181,26.2652367 C54.5372573,25.9396267 53.4157707,25.7346213 53.1022657,25.6502111 C51.8842733,25.3125426 51.2752308,24.7939859 51.2752308,24.0945409 C51.2752169,23.5398084 51.5706757,22.8463557 52.1615932,22.014294 C52.6560142,21.3148583 53.1745339,20.7480486 53.7172634,20.3139576 C54.8026298,19.4336245 56.3461673,18.9934393 58.3480612,18.9934393 L65.3738613,18.9935042 C68.4852017,18.9935042 70.0407793,18.1312589 70.0408719,16.4067405 C70.0408626,15.4902316 69.4981887,14.3687264 68.4128686,13.0421881 C67.725473,12.1980492 66.7245724,11.1669929 65.4100741,9.94900043 C64.3247077,8.93605973 63.7820709,8.37527012 63.7820709,8.26672422 C63.7820616,6.73522678 64.04134,5.61364755 64.5598967,4.90217178 C64.6804919,4.74541928 66.19392,4.13039377 69.1002087,3.05707672 C72.1753363,1.92355004 74.9429788,0.982849781 77.4030439,0.235161173 Z M35.2046296,28.1798956 L36.904966,29.8802319 L35.2226897,31.5625081 L33.5223534,29.8621718 L35.2046296,28.1798956 Z M91.3200082,13.0385761 C92.7671325,13.0385761 93.8404588,14.0334567 94.5398945,16.0233105 C95.0222569,17.4101418 95.2635307,18.9838721 95.2635307,20.744594 C95.2635307,24.1935196 94.0756385,27.1479686 91.6999466,29.6081262 C90.952258,30.3799135 90.4759342,30.7658257 90.2708824,30.7658257 C88.9805569,30.7658257 87.4791597,30.6331626 85.7666907,30.3678642 C85.1757824,30.2713861 84.8803282,30.1809374 84.8803282,30.0965272 C84.8803282,30.0000492 85.1938702,29.861366 85.8209358,29.6804778 C87.7021511,29.1378039 89.4448129,28.1730605 91.0486434,26.7862292 C91.7239527,26.2073795 92.3389689,25.5260039 92.8937385,24.7421951 C93.5931742,23.7653746 93.9428921,22.9453529 93.9428921,22.28213 L93.9428921,21.5223921 L90.9220374,21.6309287 C88.7875175,21.7032618 87.7203039,20.8169178 87.7203039,18.971832 C87.7202946,17.8261727 88.0519245,16.5961402 88.7151844,15.2816419 C89.4749224,13.7862647 90.3431877,13.0385761 91.3200082,13.0385761 Z M82.5805907,24.4535852 L84.3714128,26.2624674 L82.5805907,28.0532896 L80.7897685,26.2444073 L82.5805907,24.4535852 Z M78.6009757,24.4535852 L80.4098579,26.2624674 L78.6190358,28.0532896 L76.8282137,26.2444073 L78.6009757,24.4535852 Z M12.1718612,24.4535852 L13.9626833,26.2624674 L12.1718612,28.0532896 L10.381039,26.2444073 L12.1718612,24.4535852 Z M8.19224617,24.4535852 L10.0011284,26.2624674 L8.21030628,28.0532896 L6.41948416,26.2444073 L8.19224617,24.4535852 Z M33.1425354,24.5621311 L34.8428717,26.2624674 L33.1425354,27.9447437 L31.4240463,26.2444073 L33.1425354,24.5621311 Z M37.2486638,24.5621311 L38.9671528,26.2624674 L37.2668165,27.9447437 L35.5483274,26.2444073 L37.2486638,24.5621311 Z M25.1619213,7.47083826 C25.2342636,7.51909118 25.3247124,7.66983291 25.4332583,7.92306345 C26.2291627,9.80437135 27.2843734,12.5538612 28.5988716,16.1716257 C29.2862395,18.052841 30.2569751,18.9935412 31.5111803,18.9935412 L31.6920686,18.9935412 L32.2961654,18.9943377 L34.6658372,18.9943377 C36.9691961,18.9943377 38.1208755,18.5782883 38.1208755,17.7461525 C38.1208708,17.1673028 37.5962894,16.2085424 36.5471451,14.869964 L37.4877528,12.5907779 C37.5842216,12.3616646 37.6626117,12.2470894 37.722914,12.2470894 C37.7832069,12.2470894 37.9098315,12.3857818 38.1027876,12.6631388 C39.079608,14.098223 39.5679998,15.5694275 39.5679998,17.0768448 C39.5679998,20.1399971 38.0425224,21.6714945 34.9914749,21.6714945 L32.2961654,21.6714945 L31.6919389,21.670661 L31.1311771,21.670661 C30.262884,21.670661 29.527254,21.3932947 28.9243241,20.8385622 C28.5504705,20.5009029 28.0982453,19.8859145 27.5676856,18.9934671 C27.0129438,19.9702876 26.3677533,20.6637033 25.6321973,21.0737141 C24.7277377,21.5681444 23.4494245,21.8153642 21.7973411,21.8153642 C18.5533746,21.8153642 16.9313914,20.6516447 16.9313914,18.3242057 C16.9313914,17.5403506 17.1725726,16.7323227 17.6549536,15.9002609 C17.8117246,15.6229039 17.9684956,15.4842208 18.1252666,15.4842115 C18.2699791,15.4842208 18.3423307,15.604816 18.3423399,15.8459972 C18.3423362,15.9786511 18.3242428,16.1746172 18.2880762,16.4338863 C18.2518912,16.6931739 18.2338033,16.88914 18.2338125,17.0217846 C18.2338079,18.4086159 19.4095721,19.1020316 21.7611838,19.1020316 C25.0774833,19.1020408 26.7356794,18.4568595 26.7356794,17.1665433 C26.7356674,16.4671076 25.776919,13.9527697 23.8594909,9.62343682 L24.8905843,7.83261471 C25.0232289,7.60350136 25.1136684,7.48291538 25.1619213,7.47083826 Z M1.73657695,0 C1.80892853,0 1.87526008,0.144740215 1.93555307,0.434137291 C1.99584606,0.723589937 2.05010974,1.11250286 2.0983534,1.6009131 C2.14658778,2.0893326 2.18879288,2.65312297 2.22497793,3.29226568 C2.26115372,3.93142691 2.29130022,4.59768757 2.31542667,5.29110323 C2.33954387,5.98453741 2.35763176,6.68395458 2.36969036,7.38941032 C2.3817397,8.09489383 2.38777826,8.75512519 2.38777826,9.37018776 L2.38777826,16.1174453 C2.38777363,18.0348735 3.31031653,18.9936338 5.15542085,18.9936338 L5.87894596,18.9936338 L6.46557542,18.9943377 L8.83524726,18.9943377 C11.1386061,18.9943377 12.2902855,18.5782883 12.2902855,17.7461525 C12.2902808,17.1673028 11.7656994,16.2085424 10.7165552,14.869964 L11.6571628,12.5907779 C11.7536316,12.3616646 11.8320217,12.2470894 11.892324,12.2470894 C11.952617,12.2470894 12.0792415,12.3857818 12.2721976,12.6631388 C13.2490181,14.098223 13.7374098,15.5694275 13.7374098,17.0768448 C13.7374098,20.1399971 12.2119324,21.6714945 9.16088496,21.6714945 L6.46557542,21.6714945 L5.87894596,21.670661 L4.79357958,21.670661 C4.04589097,21.670661 3.40369193,21.5470557 2.86707509,21.299836 C2.33043046,21.0526162 1.88729089,20.6667226 1.53757305,20.1421365 C1.18784594,19.6175597 0.93158685,18.9422042 0.768786523,18.1161625 C0.605986197,17.2901023 0.524576772,16.2921839 0.524586033,15.1224443 L0.542673929,10.7087384 C0.542670225,8.61043129 0.361776445,5.60763678 0,1.70035485 L1.42906419,0.180897484 C1.54965017,0.0603207718 1.65215751,0 1.73657695,0 Z M90.9402087,15.6252471 C90.4578277,15.6252471 90.0387591,15.8061446 89.6830397,16.167921 C89.327274,16.5297067 89.1494051,16.9517854 89.1494051,17.4341664 C89.1494051,18.49536 89.909143,19.0260494 91.4285911,19.0260494 C91.995373,19.0260494 92.7189166,18.9597364 93.5993239,18.827064 C93.5993239,18.0914618 93.3460563,17.385969 92.8395767,16.7106135 C92.2848349,15.9870513 91.6516845,15.6252471 90.9402087,15.6252471 Z" id="wikipedia-wordmark-fa" fill="#000000" fill-rule="nonzero"></path>
    </g>
</svg>

<svg xmlns="http://www.w3.org/2000/svg" width="96" height="32"><path fill="#000" fill-rule="nonzero" d="M77.403.235c0 .338-.199 1.194-.597 2.569-2.93.965-6.705 2.321-11.324 4.07 2.147 1.893 4.775 4.86 7.887 8.9 1.097 1.423 1.99 2.34 2.677 2.75.53.313 1.296.47 2.297.47h1.571c2.304 0 3.455-.416 3.455-1.248 0-.579-.524-1.537-1.573-2.876l.94-2.28c.097-.228.175-.343.235-.343s.187.139.38.416c.977 1.435 1.466 2.906 1.466 4.414 0 3.063-1.526 4.594-4.577 4.594h-2.695v-.003l-.136-.004c-1.127-.072-2.28-.721-3.46-1.947-.616-.64-1.514-1.821-2.696-3.545.12 3.666-1.948 5.499-6.205 5.499h-8.78c-.627 0-1.254.102-1.881.307-.833.29-1.249.682-1.249 1.176 0 .18 1.113.491 3.338.932 2.225.44 3.337.925 3.337 1.456 0 1.82-.524 3.177-1.574 4.07-1.772 1.52-4.896 2.279-9.37 2.279-5.402 0-8.103-1.996-8.103-5.987 0-.893.193-1.894.578-3.003.386-1.11.857-2.026 1.411-2.75.217-.277.416-.428.597-.452.181-.012.272.084.272.29 0 .18-.073.41-.217.687-.7 1.326-1.05 2.701-1.05 4.124 0 1.17.44 2.135 1.32 2.894 1.135.99 2.895 1.484 5.283 1.484 1.845 0 3.557-.097 5.137-.29 2.798-.35 4.197-.946 4.197-1.79 0-.35-.61-.628-1.827-.833-1.93-.325-3.051-.53-3.365-.615-1.218-.337-1.827-.856-1.827-1.555 0-.555.296-1.249.887-2.08.494-.7 1.013-1.267 1.555-1.701 1.086-.88 2.63-1.32 4.631-1.32h7.026c3.111 0 4.667-.863 4.667-2.587 0-.917-.543-2.038-1.628-3.365-.688-.844-1.688-1.875-3.003-3.093-1.085-1.013-1.628-1.574-1.628-1.682 0-1.532.26-2.653.778-3.365.12-.157 1.634-.772 4.54-1.845C72.175 1.924 74.943.983 77.403.235ZM35.205 28.18l1.7 1.7-1.682 1.683-1.7-1.7 1.682-1.683ZM91.32 13.039c1.447 0 2.52.994 3.22 2.984.482 1.387.724 2.96.724 4.722 0 3.449-1.188 6.403-3.564 8.863-.748.772-1.224 1.158-1.43 1.158-1.29 0-2.79-.133-4.503-.398-.591-.097-.887-.187-.887-.271 0-.097.314-.236.94-.417 1.882-.542 3.625-1.507 5.229-2.894.675-.579 1.29-1.26 1.845-2.044.7-.977 1.049-1.797 1.049-2.46v-.76l-3.021.109c-2.134.072-3.202-.814-3.202-2.66 0-1.145.332-2.375.995-3.69.76-1.495 1.628-2.242 2.605-2.242Zm-8.74 11.415 1.791 1.808-1.79 1.791-1.791-1.809 1.79-1.79Zm-3.979 0 1.809 1.808-1.791 1.791-1.79-1.809 1.772-1.79Zm-66.43 0 1.792 1.808-1.791 1.791-1.791-1.809 1.79-1.79Zm-3.979 0 1.81 1.808-1.792 1.791-1.79-1.809 1.772-1.79Zm24.95.108 1.7 1.7-1.7 1.683-1.718-1.7 1.719-1.683Zm4.107 0 1.718 1.7-1.7 1.683-1.719-1.7 1.7-1.683ZM25.162 7.471c.072.048.163.199.271.452.796 1.881 1.851 4.63 3.166 8.249.687 1.88 1.658 2.822 2.912 2.822H34.666c2.303 0 3.455-.416 3.455-1.248 0-.579-.525-1.537-1.574-2.876l.94-2.28c.097-.228.176-.343.236-.343s.187.139.38.416c.977 1.435 1.465 2.906 1.465 4.414 0 3.063-1.525 4.594-4.577 4.594h-3.859c-.87 0-1.605-.278-2.208-.832-.374-.338-.826-.953-1.356-1.846-.555.977-1.2 1.67-1.936 2.08-.904.495-2.183.742-3.835.742-3.244 0-4.866-1.163-4.866-3.49 0-.785.242-1.593.724-2.425.157-.277.313-.416.47-.416.145 0 .217.12.217.362 0 .133-.018.329-.054.588-.036.26-.054.455-.054.588 0 1.387 1.176 2.08 3.527 2.08 3.316 0 4.975-.645 4.975-1.935 0-.7-.96-3.214-2.877-7.544l1.032-1.79c.132-.23.223-.35.27-.362ZM1.737 0c.072 0 .138.145.199.434.06.29.114.679.162 1.167.049.488.09 1.052.127 1.691.036.64.066 1.306.09 2a118.769 118.769 0 0 1 .073 4.078v6.747c0 1.918.922 2.877 2.767 2.877h3.681c2.303 0 3.454-.416 3.454-1.248 0-.579-.524-1.537-1.573-2.876l.94-2.28c.097-.228.175-.343.235-.343s.187.139.38.416c.977 1.435 1.465 2.906 1.465 4.414 0 3.063-1.525 4.594-4.576 4.594H4.794c-.748 0-1.39-.124-1.927-.371a3.182 3.182 0 0 1-1.33-1.158c-.35-.524-.605-1.2-.768-2.026-.163-.826-.244-1.824-.244-2.994l.018-4.413C.543 8.61.362 5.608 0 1.7L1.43.18c.12-.12.222-.18.307-.18ZM90.94 15.625c-.482 0-.901.181-1.257.543-.356.362-.534.784-.534 1.266 0 1.061.76 1.592 2.28 1.592.566 0 1.29-.066 2.17-.199 0-.736-.253-1.441-.76-2.116-.554-.724-1.187-1.086-1.899-1.086Z"/></svg>
